X: 73
M: C
L: 1/8
K: D
"a."HAG |\
f2d2 d3e | f2d2 d2ef | g2e2 edef | g2e2 e4 |
f2af d2d2 | fgaf d2d2 | c2A2 B2c2 | [d4D4] [d2D2] :|
P: Var:
"a."D2 || "b."D3D || "b."DDDD |]


